X:1
T:Air
T:Air 
T:Orchestral Suite in D
T:J.S. Bach
C:J.S. Bach
%%score [ 1 2 3 4 ]
L:1/8
Q:1/4=42
M:4/4
K:D
V:1 treble nm="Violin I"
V:2 treble nm="Violin II"
V:3 alto nm="Viola"
V:4 bass nm="Violoncello"
V:1
 f8- | fb/g/{f} e/d/c/d/ c2{B} A2 | a4- a/f/(=c/B/) (e/^d/)(a/g/) | g4- g/e/(B/A/) (d/c/)(g/f/) | %4
 f3 (^g/a/) dd/4e/4f/- f/e/(e/d/) | c/B/B/4c/4d/- dc/B/ A4 | f8- | fb/g/{f} e/d/c/d/ c2{B} A2 | %8
 a4- a/f/(=c/B/) (e/^d/)(a/g/) | g4- g/e/(B/A/) (d/c/)(g/f/) | f3 (^g/a/) dd/4e/4f/- f/e/(e/d/) | %11
 c/B/B/4c/4d/- dc/B/ A4 |: c2- c/d/4c/4B/4c/4A/ a3 =c | Bb- b/a/g/f/ g2- g/4f/4e/4d/4c/B/ | %14
 ^A/B/c- c/d/e- e/f/g- gf | e/d/c/B/ (c/d/4e/4)d B4 | d2- d/f/e/d/ b2- ba/^g/ | %17
{f} e/a/A B3/2c/4d/4 c>B A2 | d3 (f/e/) e3 (g/f/) | f3 (a/g/) g4 | A2- A/c/e/g/ g/e/f- f-f/g/4a/4 | %21
 d2- d/f/a/=c'/ b3 d | c/e/ g2 B Ae/f/4g/4- g/fe/ | d/4c/4Bc/ (dTc/)d/ d4 :| %24
V:2
 d8- | d2 B2 A4- | A=c/B/ ca/c/ B z z2 | Be/d/ e/f/g/e/ A z z2 | A4- A^G/A/ BG | A A2 ^G E4 | d8- | %7
 d2 B2 A4- | A=c/B/ ca/c/ B z z2 | Be/d/ e/f/g/e/ A z z2 | A4- A^G/A/ BG | A A2 ^G E4 |: %12
 A4- A/B/=c- c/B/A/G/ | F3 ^d e4- | e4- e/=d/c/B/ ^A/B/c | BBB^A F4 | E2 F2 B,E/F/ ^G/A/B- | %17
 B A2 ^G A4- | AB/=c/ B/^c/d- dc/B/ c/^d/e- | e^d/c/ d/e/f- f/d/e/B/ E2- | E/C/E/A/ cA- Ac/d/ D2- | %21
 DE F2 G4- | GB e2- e/d/c/B/ AB | A2 (TG/F/G) F4 :| %24
V:3
 A4 B4 | B,2 E2 E4- | E ^D2 E F z z2 | E B,2 E E z z2 | D3 E FDB,E- | EFB,E C4 | A4 B4 | %7
 B,2 E2 E4- | E ^D2 E F z z2 | E B,2 E E z z2 | D3 E FDB,E- | EFB,E C4 |: E4- E^D/E/ F2- | %13
 F/G/A/F/ ^DB B2 B,2 | (C/D/E/F/) (G/F/G/E/) FE/D/ CF | FE/D/ GF/E/ D4 | B,B A/^G/A G>F E2- | %17
 EEFE E>D C/D/E/C/ | A, D2 B,- B, E2 C- | C F2 ^D B,2- B,/B/G/E/ | AGFE D2 A2- | AG A2 D4 | %22
 (E/B,/E/G/) (B/A/G/F/) E A2 G | F2 EA, A,4 :| %24
V:4
 D,DCC, B,,B,A,A,, | G,,G,^G,^G,, A,,A,=G,=G,, | F,,F,E,E,, ^D,,^D,B,,B, | E,,E,D,D,, C,,C,A,,A, | %4
 D,DCC, B,,B,^G,E, | A,D,E,E,, (A,,/B,,/C,/D,/ E,/G,/F,/E,/) | D,DCC, B,,B,A,A,, | %7
 G,,G,^G,^G,, A,,A,=G,=G,, | F,,F,E,E,, ^D,,^D,B,,B, | E,,E,D,D,, C,,C,A,,A, | D,DCC, B,,B,^G,E, | %11
 A,D,E,E,, A,,4 |: A,,A,G,G,, F,,F,E,E,, | ^D,,^D,F,B,, E,E=D=D, | C,CB,B,, ^A,,B,,C,A,, | %15
 B,,G,E,F, B,,B,A,A,, | ^G,,^G,F,F,, E,,E,D,D,, | C,,C,D,E, A,,A,G,G,, | F,,F,G,G,, ^G,,^G,A,A,, | %19
 ^A,,^A,B,B,, E,EDD, | C,CA,C DD,=C,=C | B,B,,A,,A, G,G,,F,,F, | E,E,,D,,D, C,A,,D,G, | %23
 A,G,A,A,, D,,4 :| %24

